apps/portfolio/src/portfolio/static/assets/icons/autocad.svg

<svg
  width="800"
  height="800"
  viewBox="0 0 512 512"
  fill="#ffffff"
  xmlns="http://www.w3.org/2000/svg"
>
  <path
    d="m152.28 427.01-19.952 84.494 h-124.99 l23.082-79.671 c31.792 7.743 74.363 6.11 121.86-4.823 z m252.37-128.95 h-34.187
      v33.757 h34.188 v-33.757 z m-298 33.906 h-17.525 v-50.723 h97.573 l32.713-138.51 35.594 138.51 h48.65 v-49.567 h50.424
      v-99.142 h0.281 l-34.645-132.03 h-164.32 l-113.95 393.28 c46.541 15.601 122.89 3.479 211.24-45.157 h-146.03 v-16.668 z
      m398-33.906 v33.757 h-50.424 v48.714 h-34.787 l33.897 129.17 h-139.62 l-33.539-130.5
      c9.59-4.944 19.172-10.18 28.703-15.751 3.797-2.223 7.463-4.455 11.16-6.687 v-24.942 h-196.58 v-16.663 h-17.524 v-17.094
      h214.53 v-49.571 h50.429 v-99.142 h33.757 v99.142 h49.572 v49.571 h50.421 z m-85.038-16.667 h-64.528 v65.386 h64.528
      v-65.386 z"
  />
</svg>

<?xml version="1.0" encoding="iso-8859-1"?>
<!DOCTYPE svg PUBLIC "-//W3C//DTD SVG 1.1//EN" "http://www.w3.org/Graphics/SVG/1.1/DTD/svg11.dtd">

<svg fill="#000000"  version="1.1" xmlns="http://www.w3.org/2000/svg" xmlns:xlink="http://www.w3.org/1999/xlink"  width="800px"
	 height="800px" viewBox="0 0 512 512" enable-background="new 0 0 512 512" xml:space="preserve">

<g id="2069a460dcf28295e231f3111e03d6d7">

<path display="inline" d="M152.285,427.006L132.333,511.5H7.346l23.082-79.671C62.22,439.572,104.791,437.939,152.285,427.006z
		 M404.659,298.054h-17.951h-16.236v17.094v16.663h34.188V298.054z M106.656,331.96H89.131v-50.723h97.573l32.713-138.507
		l35.594,138.507h48.65V231.67h50.424v-99.142h0.281L319.721,0.5H155.406L41.452,393.785
		c46.541,15.601,122.887,3.479,211.237-45.157H106.656V331.96z M504.654,298.054v33.757H454.23v48.714h-34.787l33.897,129.17
		H313.724L280.185,379.19c9.59-4.944,19.172-10.18,28.703-15.751c3.797-2.223,7.463-4.455,11.16-6.687v-24.942h-52.039H123.473
		v-16.663h-17.524v-17.094h17.524h59.267h76.595h61.14v-49.571h17.521h32.908v-52.937v-46.205h11.105h5.131h17.521v99.142h32.051
		h17.521v49.571h32.903H504.654z M419.616,281.387h-64.528v65.386h64.528V281.387z">

</path>

</g>

</svg>
